icons/svg/message-alert.svg

﻿<?xml version="1.0" encoding="utf-8"?>
<!DOCTYPE svg PUBLIC "-//W3C//DTD SVG 1.1//EN" "http://www.w3.org/Graphics/SVG/1.1/DTD/svg11.dtd">
<svg xmlns="http://www.w3.org/2000/svg" xmlns:xlink="http://www.w3.org/1999/xlink" version="1.1" baseProfile="full" width="24" height="24" viewBox="0 0 24.00 24.00" enable-background="new 0 0 24.00 24.00" xml:space="preserve">
	<path fill="#000000" fill-opacity="1" stroke-width="0.2" stroke-linejoin="round" d="M 12.9994,9.99807L 10.9994,9.99807L 10.9994,5.99807L 12.9994,5.99807M 12.9994,13.9981L 10.9994,13.9981L 10.9994,11.9981L 12.9994,11.9981M 19.9994,1.99807L 3.99938,1.99807C 2.89539,1.99807 2.01038,2.89306 2.01038,3.99807L 1.99938,21.9981L 5.99938,17.9981L 19.9994,17.9981C 21.1029,17.9981 21.9994,17.1021 21.9994,15.9981L 21.9994,3.99807C 21.9994,2.89306 21.1029,1.99807 19.9994,1.99807 Z "/>
</svg>

<svg xmlns="http://www.w3.org/2000/svg" version="1.1" baseProfile="full" width="24" height="24" viewBox="0 0 24.00 24.00" xml:space="preserve"><path fill="#000" fill-opacity="1" stroke-width=".2" stroke-linejoin="round" d="M13 9.998h-2v-4h2m0 8h-2v-2h2m7-10H4c-1.105 0-1.99.895-1.99 2l-.01 18 4-4h14c1.103 0 2-.896 2-2v-12c0-1.105-.897-2-2-2z"/></svg>
